packages/IcoMoon/src/PowerCordIcon/index.svg

<svg version="1.1" xmlns="http://www.w3.org/2000/svg" width="16" height="16" viewBox="0 0 16 16">
<path d="M16 4.414l-1.414-1.414-2.793 2.793-1.586-1.586 2.793-2.793-1.414-1.414-2.793 2.793-1.793-1.793-1.354 1.353 8 8 1.354-1.353-1.793-1.793 2.793-2.793z"></path>
<path d="M12.407 10.528l-6.935-6.935c-1.497 1.795-3.196 4.57-2.022 6.957l-2.066 2.066c-0.486 0.486-0.486 1.282 0 1.768l0.232 0.232c0.486 0.486 1.282 0.486 1.768 0l2.066-2.066c2.387 1.174 5.161-0.524 6.957-2.022z"></path>
</svg>

<svg xmlns="http://www.w3.org/2000/svg" viewBox="0 0 16 16">
  <path d="M16 4.414L14.586 3l-2.793 2.793-1.586-1.586L13 1.414 11.586 0 8.793 2.793 7 1 5.646 2.353l8 8L15 9l-1.793-1.793L16 4.414zm-3.593 6.114L5.472 3.593C3.975 5.388 2.276 8.163 3.45 10.55l-2.066 2.066a1.254 1.254 0 000 1.768l.232.232a1.254 1.254 0 001.768 0L5.45 12.55c2.387 1.174 5.161-.524 6.957-2.022z"/>
</svg>
